X:1
T:Cindy
M:4/4
L:1/4
K:G
 d| e d B B| A G G d| e d B B| d3 z|
  e d B B| A G G3/2 A/2| B G E G| G z (3BAG :|
 E2 G G| A G B/2A/2 G| D4-| D z B/2A/2|
  G| E2 G G| A G2 A| B B B A|G2 z||
